**kern	**kern	**dynam
*part1	*part1	*part1
*staff2	*staff1	*
*I"Piano	*	*
*clefF4	*clefG2	*
*k[f#c#g#]	*k[f#c#g#]	*
*M2/4	*M2/4	*
=1	=1	=1
8r	8r	.
=	=	=
(4A'	(4e' 4cc#	p
4G#')	4e') 4b	.
=	=	=
8B'L	8e'L 8g# 8dd	.
8A'J	8e'J 8a 8cc#	.
4r	8r	.
.	8a	.
=	=	=
4.d^ 4.f#	4.a^ 4.ff#	.
8c# 8e	8a 8ee	.
=	=	=
4.c# 4.e	4.a 4.ee	.
8r	8ee	p
=	=	=
2r	8cc#'L	.
.	8g#'	.
.	8a'	.
.	8f#'J	.
=	=	=
8r	8c#'L	.
8BB'L	8A' 8B 8d#X	.
8EE'J	8G#'J 8B 8e	.
8r	8ee'	.
=	=	=
*-	*-	*-
!!!system-decoration: {(s1,s2)}
